X:1
T:The Swan
T:The Swan
L:1/8
M:6/4
K:G
V:1 treble nm="Piano" snm="Pno."
V:1
"G""^A" (g2 f2 B2) (e2 d2 G2) |"Am7/G" (A4- AB) c4 z2 |"Am7/G" (E4 FG)"D11/G" (ABcdef) | %3
"G" b6- b z4 z |"G" (g2 f2 B2) (e2 d2 G2) |"Gdim" (^A4- AB)"F#7/G" ^c6 | %6
"Bm/F#" (F3 ^G^AB)"F#7" (^cdef^g^a) |"Bm" d'6- d' z4 z |"G/B""^B" (d'2 b2 g2)"Gdim/Bb" (e2 f2 g2) | %9
"Am" (d4- de)"D7" f4 z2 |"F/A" (c'2 a2 =f2)"Fdim/Ab""CorG7b9/Ab" (d2 e2 f2) | %11
"Gm711" (c4- cd)"C7" e4 z2 |"Dm7/F" (e2 A2 B2)"Am/E" (c4 de) |"D" (f6"Am/E" e4) z2 | %14
"Dm/F" (e2 A2 B2)"A/E" (^c4 de) |"Dm" (=f6"D7/C""C""C" ^f6) |"G""^A" (g2 f2 B2) (e2 d2 G2) | %17
"Am7/G" (A4- AB) c4 z2 |"Am7/G" (E4 FG)"D711/G" (ABcd"D7"ef) |"G7/F""^CODA" b6-"E7" b6 | %20
"Am" (b2 a2 e2)"D/F#" (g2 f2 c2) |"G/B" (e2 d2 !breath!G2)"Am7/E" (A2 B2 G2) | %22
"G/D" !breath!B6 (c2 d2 B2) |"Em7/D""CorAm9" !breath!e6"D7" (e2 f2 d2) |"G" (g6- g6- | %25
 g6- g) z4 z |] %26

